; generated by SuperSlicer 2.4 on 2025-10-23 at 17:07:37 UTC


;
;

;
;
; TODO: check the size of the extruder and the y-bar clearance. Optimize & test supports.

; external perimeters extrusion width = 0.42mm
; perimeters extrusion width = 0.46mm
; infill extrusion width = 0.44mm
; solid infill extrusion width = 0.46mm
; top infill extrusion width = 0.44mm
; support material extrusion width = 0.44mm
; first layer extrusion width = 0.56mm

; object:{"name":"AE_schlitternde-steine_foot-mount_4x_V1","id":"AE_schlitternde-steine_foot-mount_4x_V1.stl id:0 copy 0","object_center":[150.000000,150.000000,0.000000],"boundingbox_center":[150.000000,150.000000,26.326061],"boundingbox_size":[99.498749,99.498749,52.652122]}
; plater:{"center":[150.000000,150.000000,0.000000],"boundingbox_center":[150.000000,150.000000,26.326061],"boundingbox_size":[99.498749,99.498749,52.652122]}

;TYPE:Custom
; M190 S0
; M109 S0 ; uncomment to remove set&wait temp gcode added automatically after this start gcode
print_start EXTRUDER=250 BED=110 CHAMBER=50
M107
G21 ; set units to millimeters
G90 ; use absolute coordinates
M83 ; use relative distances for extrusion
;_TOOLCHANGE 0
M104 S250 ; set temperature
M109 S250 ; set temperature and wait for it to be reached
M190 S110 ; set bed temperature and wait for it to be reached
M107
;LAYER_CHANGE
;Z:0.2
;HEIGHT:0.2
;BEFORE_LAYER_CHANGE
;0.2


G1 Z0.2 F18000
;AFTER_LAYER_CHANGE
;0.2
G92 E0
G1 E-0.75 F3000
G1 Z0.6 F18000
M204 S1000
G1 X92.197 Y91.822
G1 Z0.2
G1 E0.75 F1800
;TYPE:Skirt
;WIDTH:0.52
G1 X91.077 Y93.384 E0.07626
G1 X90.681 Y95.266 E0.07626
G1 X90.681 Y148.649 E2.1177
G1 X90.998 Y150.341 E0.06829
G1 X92.049 Y151.951 E0.07626
G1 X148.049 Y207.951 E3.14165
G1 X149.469 Y208.923 E0.06829
G1 X151.351 Y209.319 E0.07626
G1 X204.734 Y209.319 E2.1177
G1 X206.309 Y209.045 E0.06342
G1 X207.947 Y208.038 E0.07626
G1 X209.04 Y206.457 E0.07626
G1 X209.403 Y204.569 E0.07626
G1 X209.165 Y194.421 E0.40267
G1 X208.751 Y189.098 E0.21181
G1 X208.079 Y183.801 E0.21181
G1 X207.126 Y178.432 E0.21632
G1 X206.563 Y175.822 E0.10591
G1 X205.277 Y170.757 E0.20729
G1 X203.715 Y165.652 E0.21181
G1 X201.906 Y160.628 E0.21181
G1 X199.808 Y155.595 E0.21632
G1 X197.513 Y150.773 E0.21184
G1 X194.963 Y146.026 E0.21375
G1 X193.612 Y143.72 E0.10603
G1 X190.813 Y139.313 E0.20709
G1 X187.733 Y134.945 E0.21205
G1 X184.443 Y130.732 E0.21203
G1 X180.952 Y126.684 E0.21202
G1 X177.192 Y122.736 E0.2163
G1 X173.32 Y119.052 E0.21201
G1 X169.273 Y115.561 E0.21201
G1 X165.061 Y112.272 E0.21201
G1 X160.698 Y109.195 E0.2118
G1 X158.445 Y107.727 E0.10665
G1 X153.974 Y105.037 E0.20701
G1 X149.229 Y102.488 E0.21365
G1 X144.408 Y100.193 E0.21181
G1 X139.478 Y98.135 E0.21193
G1 X134.456 Y96.321 E0.21181
G1 X129.352 Y94.754 E0.21181
G1 X124.178 Y93.437 E0.21181
G1 X118.945 Y92.374 E0.21181
G1 X113.667 Y91.567 E0.21181
G1 X108.356 Y91.018 E0.21181
G1 X102.911 Y90.725 E0.21632
G1 X95.431 Y90.597 E0.29678
G1 X93.851 Y90.843 E0.06342
G1 X92.248 Y91.791 E0.07388
G1 X92.633 Y92.088 F18000
G1 F1800
G1 X91.553 Y93.489 E0.07016
G1 X91.158 Y95.266 E0.07222
G1 X91.158 Y148.649 E2.1177
G1 X91.409 Y150.078 E0.05754
G1 X92.386 Y151.614 E0.07222
G1 X148.386 Y207.614 E3.14165
G1 X149.574 Y208.447 E0.05754
G1 X151.351 Y208.842 E0.07222
G1 X204.734 Y208.842 E2.1177
G1 X205.872 Y208.685 E0.04558
G1 X207.476 Y207.822 E0.07222
G1 X208.562 Y206.361 E0.07222
G1 X208.926 Y204.577 E0.07222
G1 X208.689 Y194.441 E0.40221
G1 X208.276 Y189.141 E0.21088
G1 X207.591 Y183.766 E0.21494
G1 X206.66 Y178.532 E0.21089
G1 X206.099 Y175.934 E0.10545
G1 X204.816 Y170.88 E0.20683
G1 X203.26 Y165.797 E0.21089
G1 X201.422 Y160.7 E0.21494
G1 X199.375 Y155.794 E0.21089
G1 X197.09 Y150.993 E0.21092
G1 X194.551 Y146.267 E0.21282
G1 X193.206 Y143.971 E0.10557
G1 X190.413 Y139.574 E0.20663
G1 X187.346 Y135.224 E0.21112
G1 X184.071 Y131.03 E0.21111
G1 X180.595 Y127.001 E0.2111
G1 X176.859 Y123.077 E0.21492
G1 X173.004 Y119.409 E0.21109
G1 X168.975 Y115.933 E0.21109
G1 X164.781 Y112.658 E0.21108
G1 X160.437 Y109.594 E0.21087
G1 X158.195 Y108.132 E0.10619
G1 X153.733 Y105.449 E0.20655
G1 X149.009 Y102.911 E0.21273
G1 X144.208 Y100.627 E0.21089
G1 X139.3 Y98.578 E0.211
G1 X134.3 Y96.772 E0.21088
G1 X129.218 Y95.212 E0.21089
G1 X124.066 Y93.901 E0.21088
G1 X118.756 Y92.825 E0.21494
G1 X113.5 Y92.027 E0.21089
G1 X108.211 Y91.485 E0.21089
G1 X102.903 Y91.202 E0.21089
G1 X95.423 Y91.074 E0.29678
G1 X94.282 Y91.211 E0.04558
G1 X92.672 Y92.043 E0.07189
G1 X93.061 Y92.369 F18000
G1 F1800
G1 X92.03 Y93.599 E0.06368
G1 X91.635 Y95.266 E0.06793
G1 X91.635 Y148.649 E2.1177
G1 X91.824 Y149.819 E0.04702
G1 X92.723 Y151.277 E0.06793
G1 X148.723 Y207.277 E3.14165
G1 X149.684 Y207.97 E0.04702
G1 X151.351 Y208.365 E0.06793
G1 X204.734 Y208.365 E2.1177
G1 X207.006 Y207.59 E0.09523
G1 X208.083 Y206.258 E0.06793
G1 X208.449 Y204.586 E0.06793
G1 X208.212 Y194.461 E0.40175
G1 X207.801 Y189.184 E0.20996
G1 X207.12 Y183.844 E0.21355
G1 X206.212 Y178.722 E0.20637
G1 X205.655 Y176.134 E0.10499
G1 X204.33 Y170.916 E0.21355
G1 X202.777 Y165.856 E0.20996
G1 X200.979 Y160.878 E0.20996
G1 X198.941 Y155.994 E0.20997
G1 X196.667 Y151.213 E0.20999
G1 X194.139 Y146.508 E0.21189
G1 X192.8 Y144.222 E0.10511
G1 X190.014 Y139.835 E0.20617
G1 X186.96 Y135.504 E0.2102
G1 X183.699 Y131.328 E0.21018
G1 X180.238 Y127.317 E0.21017
G1 X176.526 Y123.419 E0.21353
G1 X172.688 Y119.766 E0.21017
G1 X168.677 Y116.305 E0.21017
G1 X164.501 Y113.044 E0.21016
G1 X160.176 Y109.994 E0.20995
G1 X157.944 Y108.538 E0.10573
G1 X153.492 Y105.861 E0.20609
G1 X148.788 Y103.334 E0.2118
G1 X144.009 Y101.06 E0.20997
G1 X139.122 Y99.021 E0.21007
G1 X134.144 Y97.223 E0.20996
G1 X129.084 Y95.67 E0.20996
G1 X123.954 Y94.365 E0.20996
G1 X118.678 Y93.296 E0.21356
G1 X113.445 Y92.5 E0.20996
G1 X108.18 Y91.961 E0.20996
G1 X102.895 Y91.679 E0.20996
G1 X95.414 Y91.551 E0.29678
G1 X93.13 Y92.287 E0.09523
G1 X93.099 Y92.323 E0.00187
G1 X93.476 Y92.672 F18000
G1 F1800
G1 X92.506 Y93.718 E0.05658
G1 X92.112 Y95.266 E0.06336
G1 X92.112 Y148.649 E2.1177
G1 X92.245 Y149.566 E0.03676
G1 X93.061 Y150.939 E0.06336
G1 X149.061 Y206.939 E3.14165
G1 X149.803 Y207.494 E0.03676
G1 X151.351 Y207.888 E0.06336
G1 X204.734 Y207.888 E2.1177
G1 X206.54 Y207.338 E0.07487
G1 X207.605 Y206.148 E0.06336
G1 X207.972 Y204.594 E0.06336
G1 X207.735 Y194.481 E0.40129
G1 X207.326 Y189.227 E0.20904
G1 X206.649 Y183.922 E0.21217
G1 X205.743 Y178.811 E0.20591
G1 X205.189 Y176.234 E0.10453
G1 X203.873 Y171.051 E0.21217
G1 X202.327 Y166.013 E0.20904
G1 X200.537 Y161.057 E0.20904
G1 X198.508 Y156.193 E0.20904
G1 X196.244 Y151.434 E0.20907
G1 X193.728 Y146.749 E0.21097
G1 X192.395 Y144.472 E0.10464
G1 X189.614 Y140.095 E0.20571
G1 X186.573 Y135.784 E0.20928
G1 X183.326 Y131.627 E0.20926
G1 X179.881 Y127.633 E0.20925
G1 X176.192 Y123.76 E0.21215
G1 X172.372 Y120.124 E0.20925
G1 X168.378 Y116.678 E0.20924
G1 X164.221 Y113.431 E0.20924
G1 X159.916 Y110.393 E0.20903
G1 X157.693 Y108.944 E0.10526
G1 X153.251 Y106.272 E0.20563
G1 X148.568 Y103.757 E0.21088
G1 X143.809 Y101.493 E0.20905
G1 X138.943 Y99.463 E0.20914
G1 X133.987 Y97.673 E0.20904
G1 X128.949 Y96.127 E0.20904
G1 X123.842 Y94.829 E0.20904
G1 X118.6 Y93.766 E0.21217
G1 X113.391 Y92.974 E0.20904
G1 X108.149 Y92.437 E0.20904
G1 X102.886 Y92.156 E0.20904
G1 X95.406 Y92.028 E0.29678
G1 X93.592 Y92.547 E0.07487
G1 X93.516 Y92.628 E0.00439
G1 E-0.75 F3000
M204 S1500
G1 Z0.6 F18000
; acceleration to travel
G1 X95.964 Y95.2
; decel to extrusion
M204 S1000
G1 X97.595 Y96.914
; end travel
G1 Z0.2
G1 E0.75 F1800
;WIDTH:0.56
G1 X97.688 Y96.826 E0.00549
G1 X98.397 Y96.382 E0.03597
G1 X99.226 Y96.07 E0.03809
G1 X99.991 Y95.954 E0.03327
G1 X100.812 Y95.964 E0.0353
G1 X102.838 Y96 E0.08715
G1 X105.34 Y96.104 E0.10764
G1 X107.869 Y96.271 E0.10899
G1 X110.419 Y96.501 E0.11008
G1 X112.925 Y96.79 E0.10845
G1 X115.454 Y97.143 E0.10981
G1 X117.955 Y97.555 E0.10899
G1 X120.458 Y98.031 E0.10954
G1 X122.924 Y98.561 E0.10845
G1 X125.42 Y99.162 E0.11035
G1 X127.863 Y99.814 E0.10873
G1 X130.308 Y100.531 E0.10953
G1 X132.722 Y101.303 E0.109
G1 X135.141 Y102.142 E0.11008
G1 X137.509 Y103.029 E0.10872
G1 X139.872 Y103.981 E0.10954
G1 X142.195 Y104.982 E0.10875
G1 X144.565 Y106.073 E0.11217
G1 X146.792 Y107.166 E0.10666
G1 X149.093 Y108.365 E0.11154
G1 X151.305 Y109.587 E0.10871
G1 X153.499 Y110.87 E0.10925
G1 X155.666 Y112.21 E0.10953
G1 X157.804 Y113.605 E0.10976
G1 X159.888 Y115.038 E0.10874
G1 X161.95 Y116.531 E0.10949
G1 X163.976 Y118.075 E0.10952
G1 X165.968 Y119.672 E0.10977
G1 X167.907 Y121.305 E0.10898
G1 X169.823 Y123.001 E0.11004
G1 X171.676 Y124.723 E0.10871
G1 X173.5 Y126.503 E0.10963
G1 X175.268 Y128.315 E0.10884
G1 X177.007 Y130.185 E0.1098
G1 X178.69 Y132.088 E0.10923
G1 X180.332 Y134.036 E0.10953
G1 X181.928 Y136.029 E0.10977
G1 X183.469 Y138.05 E0.10925
G1 X184.96 Y140.109 E0.1093
G1 X186.41 Y142.218 E0.11004
G1 X187.794 Y144.34 E0.10896
G1 X189.122 Y146.488 E0.10855
G1 X190.406 Y148.684 E0.10938
G1 X191.644 Y150.923 E0.10999
G1 X192.826 Y153.192 E0.11001
G1 X193.945 Y155.474 E0.10928
G1 X195.011 Y157.788 E0.10955
G1 X196.018 Y160.125 E0.10941
G1 X196.971 Y162.491 E0.10968
G1 X197.861 Y164.868 E0.10913
G1 X198.702 Y167.293 E0.11035
G1 X199.467 Y169.686 E0.10804
G1 X200.174 Y172.097 E0.10803
G1 X200.836 Y174.574 E0.11021
G1 X201.43 Y177.039 E0.109
G1 X201.968 Y179.535 E0.10981
G1 X202.44 Y182.016 E0.10859
G1 X202.857 Y184.546 E0.11021
G1 X203.209 Y187.063 E0.10928
G1 X203.501 Y189.6 E0.10982
G1 X203.729 Y192.121 E0.10885
G1 X203.894 Y194.629 E0.10804
G1 X204.001 Y197.202 E0.11074
G1 X204.04 Y200.126 E0.12574
G1 X203.873 Y200.965 E0.03675
G1 X203.527 Y201.783 E0.03818
G1 X203.085 Y202.418 E0.03327
G1 X202.489 Y203.029 E0.0367
G1 X201.622 Y203.612 E0.04492
G1 X200.848 Y203.909 E0.03566
G1 X200.059 Y204.045 E0.03441
G1 X155.943 Y204.045 E1.89678
G1 X155.15 Y203.909 E0.03457
G1 X154.318 Y203.582 E0.03845
G1 X153.493 Y203.011 E0.04313
G1 X152.699 Y202.149 E0.05037
G1 X152.393 Y201.629 E0.02598
G1 X152.153 Y201.057 E0.02667
G1 X151.955 Y200.063 E0.04357
G1 X151.955 Y158.709 E1.778
G1 X146.788 Y158.694 E0.22216
G1 X145.747 Y158.461 E0.04587
G1 X144.957 Y158.084 E0.03766
G1 X144.297 Y157.597 E0.03525
G1 X143.706 Y156.989 E0.03644
G1 X143.399 Y156.568 E0.02243
G1 X143.082 Y156.353 E0.01646
G1 X142.193 Y155.449 E0.05454
G1 X141.736 Y154.712 E0.03728
G1 X141.424 Y153.879 E0.03825
G1 X141.289 Y153.015 E0.03762
G1 X141.289 Y148.045 E0.21369
G1 X99.939 Y148.045 E1.77788
G1 X99.075 Y147.887 E0.03776
G1 X98.241 Y147.541 E0.03882
G1 X97.555 Y147.064 E0.03589
G1 X96.95 Y146.465 E0.03662
G1 X96.379 Y145.604 E0.04444
G1 X96.088 Y144.837 E0.03527
G1 X95.955 Y144.056 E0.03403
G1 X95.955 Y99.936 E1.89698
G1 X96.118 Y99.059 E0.03833
G1 X96.506 Y98.158 E0.04219
G1 X97.009 Y97.472 E0.03657
G1 X97.552 Y96.955 E0.03223
G1 X97.908 Y97.33 F18000
G1 F1800
G1 X98.025 Y97.219 E0.00692
G1 X98.647 Y96.835 E0.03141
G1 X99.38 Y96.565 E0.03359
G1 X100.044 Y96.468 E0.02888
G1 X100.803 Y96.481 E0.03262
G1 X102.82 Y96.517 E0.08674
G1 X105.315 Y96.621 E0.10737
G1 X107.832 Y96.786 E0.10845
G1 X110.369 Y97.016 E0.10954
G1 X112.863 Y97.303 E0.10791
G1 X115.373 Y97.654 E0.10899
G1 X117.868 Y98.065 E0.10872
G1 X120.359 Y98.538 E0.109
G1 X122.812 Y99.066 E0.10791
G1 X125.295 Y99.664 E0.10981
G1 X127.726 Y100.313 E0.10818
G1 X130.159 Y101.026 E0.10899
G1 X132.562 Y101.795 E0.10846
G1 X134.969 Y102.63 E0.10954
G1 X137.325 Y103.512 E0.10817
G1 X139.676 Y104.459 E0.109
G1 X141.988 Y105.455 E0.10821
G1 X144.346 Y106.542 E0.11162
G1 X146.556 Y107.626 E0.10585
G1 X148.851 Y108.822 E0.11126
G1 X151.053 Y110.038 E0.10816
G1 X153.235 Y111.315 E0.10871
G1 X155.391 Y112.648 E0.10899
G1 X157.519 Y114.036 E0.10922
G1 X159.592 Y115.462 E0.1082
G1 X161.644 Y116.948 E0.10895
G1 X163.66 Y118.485 E0.10898
G1 X165.638 Y120.07 E0.10895
G1 X167.571 Y121.699 E0.10871
G1 X169.474 Y123.382 E0.10922
G1 X171.321 Y125.099 E0.10844
G1 X173.137 Y126.871 E0.10908
G1 X174.892 Y128.669 E0.10802
G1 X176.622 Y130.531 E0.10925
G1 X178.297 Y132.423 E0.10869
G1 X179.934 Y134.367 E0.10926
G1 X181.519 Y136.345 E0.10896
G1 X183.052 Y138.356 E0.10871
G1 X184.535 Y140.404 E0.10876
G1 X185.978 Y142.503 E0.1095
G1 X187.356 Y144.615 E0.10841
G1 X188.68 Y146.757 E0.10828
G1 X189.958 Y148.942 E0.10884
G1 X191.187 Y151.164 E0.10917
G1 X192.366 Y153.428 E0.10974
G1 X193.479 Y155.699 E0.10873
G1 X194.54 Y158.002 E0.109
G1 X195.542 Y160.327 E0.10886
G1 X196.488 Y162.675 E0.10887
G1 X197.376 Y165.046 E0.10886
G1 X198.21 Y167.453 E0.10953
G1 X198.974 Y169.841 E0.10777
G1 X199.677 Y172.24 E0.1075
G1 X200.334 Y174.698 E0.1094
G1 X200.927 Y177.157 E0.10873
G1 X201.462 Y179.641 E0.10927
G1 X201.93 Y182.104 E0.10777
G1 X202.345 Y184.62 E0.10967
G1 X202.695 Y187.125 E0.10873
G1 X202.986 Y189.65 E0.10927
G1 X203.213 Y192.165 E0.10858
G1 X203.378 Y194.66 E0.1075
G1 X203.484 Y197.213 E0.10986
G1 X203.522 Y200.105 E0.12437
G1 X203.372 Y200.835 E0.03203
G1 X203.063 Y201.554 E0.03364
G1 X202.675 Y202.102 E0.02888
G1 X202.138 Y202.648 E0.0329
G1 X201.408 Y203.141 E0.03791
G1 X200.733 Y203.404 E0.03115
G1 X200.036 Y203.527 E0.0304
G1 X155.966 Y203.527 E1.89484
G1 X155.266 Y203.404 E0.03052
G1 X154.537 Y203.113 E0.03377
G1 X153.853 Y202.638 E0.0358
G1 X153.131 Y201.863 E0.04556
G1 X152.848 Y201.382 E0.02399
G1 X152.641 Y200.882 E0.02326
G1 X152.473 Y200.037 E0.03704
G1 X152.473 Y158.193 E1.7991
G1 X146.871 Y158.183 E0.24082
G1 X145.941 Y157.981 E0.04094
G1 X145.242 Y157.652 E0.03321
G1 X144.653 Y157.221 E0.03139
G1 X144.09 Y156.643 E0.03469
G1 X143.763 Y156.188 E0.02409
G1 X143.43 Y155.969 E0.01713
G1 X142.617 Y155.152 E0.0496
G1 X142.189 Y154.462 E0.03488
G1 X141.918 Y153.725 E0.03377
G1 X141.806 Y152.995 E0.03175
G1 X141.806 Y147.527 E0.23507
G1 X99.963 Y147.527 E1.79908
G1 X99.197 Y147.383 E0.03348
G1 X98.467 Y147.075 E0.03407
G1 X97.871 Y146.655 E0.03136
G1 X97.334 Y146.117 E0.03268
G1 X96.851 Y145.391 E0.0375
G1 X96.593 Y144.723 E0.03081
G1 X96.473 Y144.034 E0.03007
G1 X96.473 Y99.96 E1.89497
G1 X96.62 Y99.184 E0.03394
G1 X96.968 Y98.392 E0.03721
G1 X97.382 Y97.831 E0.02996
G1 X97.865 Y97.371 E0.02868
G1 X98.221 Y97.746 F18000
G1 F1800
G1 X98.361 Y97.613 E0.0083
G1 X98.893 Y97.291 E0.02673
G1 X99.53 Y97.06 E0.02915
G1 X100.056 Y96.986 E0.02282
G1 X100.794 Y96.998 E0.03174
G1 X102.802 Y97.033 E0.08633
G1 X105.29 Y97.137 E0.1071
G1 X107.795 Y97.302 E0.10791
G1 X110.32 Y97.531 E0.109
G1 X112.8 Y97.816 E0.10737
G1 X115.299 Y98.166 E0.10845
G1 X117.781 Y98.575 E0.10818
G1 X120.253 Y99.044 E0.10819
G1 X122.701 Y99.571 E0.10764
G1 X125.171 Y100.166 E0.10927
G1 X127.59 Y100.812 E0.10764
G1 X130.011 Y101.522 E0.10845
G1 X132.401 Y102.286 E0.10792
G1 X134.796 Y103.117 E0.109
G1 X137.14 Y103.995 E0.10763
G1 X139.48 Y104.938 E0.10846
G1 X141.78 Y105.929 E0.10767
G1 X144.126 Y107.01 E0.11107
G1 X146.325 Y108.089 E0.10531
G1 X148.609 Y109.279 E0.11072
G1 X150.8 Y110.49 E0.10762
G1 X152.971 Y111.76 E0.10817
G1 X155.117 Y113.086 E0.10845
G1 X157.228 Y114.464 E0.1084
G1 X159.296 Y115.886 E0.10793
G1 X161.334 Y117.362 E0.10814
G1 X163.344 Y118.894 E0.10871
G1 X165.312 Y120.471 E0.10841
G1 X167.236 Y122.092 E0.10816
G1 X169.124 Y123.763 E0.10841
G1 X170.967 Y125.476 E0.10817
G1 X172.773 Y127.239 E0.10854
G1 X174.52 Y129.028 E0.10748
G1 X176.241 Y130.88 E0.10871
G1 X177.908 Y132.764 E0.10814
G1 X179.533 Y134.693 E0.10844
G1 X181.11 Y136.661 E0.10842
G1 X182.638 Y138.666 E0.10844
G1 X184.111 Y140.7 E0.10794
G1 X185.547 Y142.788 E0.10896
G1 X186.921 Y144.895 E0.10814
G1 X188.239 Y147.026 E0.10774
G1 X189.511 Y149.2 E0.1083
G1 X190.73 Y151.406 E0.10836
G1 X191.906 Y153.664 E0.10947
G1 X193.014 Y155.923 E0.10819
G1 X194.069 Y158.215 E0.10846
G1 X195.066 Y160.528 E0.10832
G1 X196.007 Y162.866 E0.10832
G1 X196.89 Y165.225 E0.10831
G1 X197.719 Y167.614 E0.10872
G1 X198.478 Y169.989 E0.10723
G1 X199.18 Y172.383 E0.10723
G1 X199.832 Y174.822 E0.10859
G1 X200.423 Y177.275 E0.10846
G1 X200.956 Y179.747 E0.10873
G1 X201.421 Y182.197 E0.10723
G1 X201.833 Y184.695 E0.10885
G1 X202.182 Y187.187 E0.10819
G1 X202.471 Y189.699 E0.10873
G1 X202.698 Y192.202 E0.10804
G1 X202.862 Y194.691 E0.10723
